src/assets/img/stamp/i.svg

<svg width="22" height="22" viewBox="0 0 22 22" fill="none" xmlns="http://www.w3.org/2000/svg">
<path d="M11.0859 19.2578C10.0443 19.2578 9.0651 19.0573 8.14844 18.6562C7.23698 18.2604 6.43229 17.7135 5.73438 17.0156C5.03646 16.3177 4.48698 15.513 4.08594 14.6016C3.6901 13.6849 3.49219 12.7057 3.49219 11.6641C3.49219 10.6276 3.6901 9.65104 4.08594 8.73438C4.48177 7.81771 5.02865 7.01042 5.72656 6.3125C6.42969 5.61458 7.23698 5.06771 8.14844 4.67188C9.0651 4.27604 10.0417 4.07812 11.0781 4.07812C12.1146 4.07812 13.0911 4.27604 14.0078 4.67188C14.9245 5.06771 15.7318 5.61458 16.4297 6.3125C17.1276 7.01042 17.6745 7.81771 18.0703 8.73438C18.4714 9.65104 18.6719 10.6276 18.6719 11.6641C18.6719 12.7057 18.474 13.6849 18.0781 14.6016C17.6823 15.513 17.1354 16.3177 16.4375 17.0156C15.7396 17.7135 14.9323 18.2604 14.0156 18.6562C13.099 19.0573 12.1224 19.2578 11.0859 19.2578ZM11.0859 17.8672C11.9453 17.8672 12.75 17.7057 13.5 17.3828C14.25 17.0651 14.9089 16.6224 15.4766 16.0547C16.0443 15.487 16.487 14.8281 16.8047 14.0781C17.1224 13.3281 17.2812 12.5234 17.2812 11.6641C17.2812 10.8047 17.1224 10 16.8047 9.25C16.487 8.5 16.0443 7.84115 15.4766 7.27344C14.9089 6.70573 14.2474 6.26302 13.4922 5.94531C12.7422 5.6276 11.9375 5.46875 11.0781 5.46875C10.2188 5.46875 9.41406 5.6276 8.66406 5.94531C7.91927 6.26302 7.26302 6.70573 6.69531 7.27344C6.1276 7.84115 5.6849 8.5 5.36719 9.25C5.04948 10 4.89062 10.8047 4.89062 11.6641C4.89062 12.5234 5.04948 13.3281 5.36719 14.0781C5.6849 14.8281 6.1276 15.487 6.69531 16.0547C7.26302 16.6224 7.92188 17.0651 8.67188 17.3828C9.42188 17.7057 10.2266 17.8672 11.0859 17.8672ZM9.78906 15.7578C9.63281 15.7578 9.5 15.7057 9.39062 15.6016C9.28125 15.4974 9.22656 15.3672 9.22656 15.2109C9.22656 15.0651 9.28125 14.9401 9.39062 14.8359C9.5 14.7266 9.63281 14.6719 9.78906 14.6719H10.6797V11.4453H9.91406C9.75781 11.4453 9.625 11.3958 9.51562 11.2969C9.40625 11.1927 9.35156 11.0599 9.35156 10.8984C9.35156 10.7474 9.40625 10.6198 9.51562 10.5156C9.625 10.4115 9.75781 10.3594 9.91406 10.3594H11.3047C11.5026 10.3594 11.6536 10.4245 11.7578 10.5547C11.862 10.6797 11.9141 10.849 11.9141 11.0625V14.6719H12.7812C12.9375 14.6719 13.0703 14.7266 13.1797 14.8359C13.2891 14.9401 13.3438 15.0651 13.3438 15.2109C13.3438 15.3672 13.2891 15.4974 13.1797 15.6016C13.0703 15.7057 12.9375 15.7578 12.7812 15.7578H9.78906ZM11.0234 9.17188C10.7526 9.17188 10.5208 9.07812 10.3281 8.89062C10.1406 8.69792 10.0469 8.46615 10.0469 8.19531C10.0469 7.91927 10.1406 7.6849 10.3281 7.49219C10.5208 7.29948 10.7526 7.20312 11.0234 7.20312C11.2995 7.20312 11.5312 7.29948 11.7188 7.49219C11.9115 7.6849 12.0078 7.91927 12.0078 8.19531C12.0078 8.46615 11.9115 8.69792 11.7188 8.89062C11.5312 9.07812 11.2995 9.17188 11.0234 9.17188Z" fill="#A384BC"/>
</svg>

<svg width="22" height="22" fill="none" xmlns="http://www.w3.org/2000/svg"><path d="M11.086 19.258c-1.042 0-2.02-.2-2.938-.602a7.747 7.747 0 0 1-2.414-1.64 7.86 7.86 0 0 1-1.648-2.414 7.33 7.33 0 0 1-.594-2.938 7.31 7.31 0 0 1 .594-2.93 7.721 7.721 0 0 1 1.64-2.421 7.842 7.842 0 0 1 2.422-1.641 7.31 7.31 0 0 1 2.93-.594 7.31 7.31 0 0 1 2.93.594 7.72 7.72 0 0 1 2.422 1.64 7.721 7.721 0 0 1 1.64 2.422c.401.917.602 1.894.602 2.93a7.33 7.33 0 0 1-.594 2.938 7.747 7.747 0 0 1-1.64 2.414 7.72 7.72 0 0 1-2.422 1.64 7.228 7.228 0 0 1-2.93.602Zm0-1.39a6.04 6.04 0 0 0 2.414-.485 6.172 6.172 0 0 0 3.305-3.305c.317-.75.476-1.555.476-2.414 0-.86-.159-1.664-.476-2.414a6.172 6.172 0 0 0-5.727-3.781c-.86 0-1.664.159-2.414.476A6.195 6.195 0 0 0 5.367 9.25a6.124 6.124 0 0 0-.476 2.414c0 .86.158 1.664.476 2.414a6.172 6.172 0 0 0 3.305 3.305 6.04 6.04 0 0 0 2.414.484Zm-1.297-2.11a.557.557 0 0 1-.398-.156.517.517 0 0 1-.164-.391.5.5 0 0 1 .164-.375.543.543 0 0 1 .398-.164h.89v-3.227h-.765a.573.573 0 0 1-.398-.148.526.526 0 0 1-.164-.399c0-.15.054-.278.164-.382a.557.557 0 0 1 .398-.157h1.39c.199 0 .35.066.454.196.104.125.156.294.156.508v3.609h.867c.156 0 .29.055.399.164a.5.5 0 0 1 .164.375.517.517 0 0 1-.164.39.557.557 0 0 1-.399.157H9.79Zm1.234-6.586a.961.961 0 0 1-.976-.977.97.97 0 0 1 .281-.703.948.948 0 0 1 .695-.289c.277 0 .508.096.696.29a.957.957 0 0 1 .289.702c0 .271-.096.503-.29.696a.945.945 0 0 1-.695.28Z" fill="#A384BC"/></svg>
